svg/Pictogram/pictograms-nps-misc-smoking.svg

<svg xmlns="http://www.w3.org/2000/svg" viewBox="0 0 256 256"><path d="m0 0c-.541 0-.981-.44-.981-.981v-7.522c0-.539.44-.977.981-.977h7.521c.542 0 .982.438.982.977v7.522c0 .541-.44.981-.982.981h-7.521" fill="#fff" transform="matrix(25.89783 0 0-25.89783 30.598 5.294)"/><path d="m0 0c.652 0 1.182.527 1.182 1.178v7.521c0 .653-.53 1.182-1.182 1.182h-7.521c-.653 0-1.182-.529-1.182-1.182v-7.521c0-.651.529-1.178 1.182-1.178h7.521" transform="matrix(25.89783 0 0-25.89783 225.39 256)"/><g fill="#fff"><path d="m34.796 157.98h157.46v27.866h-157.46v-27.866"/><path d="m207.64 158.08h-7.951v27.762h7.951v-27.762"/><path d="m222.5 158.08h-7.951v27.762h7.951v-27.762"/><path d="m0 0c-.463 0-.84.375-.84.838 0 .088.014.172.039.252-.574.001-1.035.478-1.035 1.055 0 .58.465 1.048 1.043 1.056v-.305c-.41-.005-.74-.339-.74-.751 0-.415.338-.752.752-.752.052 0 .101.005.15.015.014.004.029.006.043.006.098 0 .178-.08.178-.178 0-.037-.012-.07-.031-.099-.057-.086-.092-.188-.092-.299 0-.293.238-.533.533-.533h1.102c.418 0 .753-.338.753-.754l.002-.602h-.306v.602c0 .248-.201.449-.449.449h-1.102" transform="matrix(25.89783 0 0-25.89783 159.53 121.48)"/><path d="m0 0c.113.146.18.328.18.527 0 .481-.389.869-.869.869h-.069v.307h.069c.648 0 1.175-.527 1.175-1.176 0-.173-.039-.339-.107-.488l.215.002c.881 0 1.594-.715 1.594-1.594v-.664h-.307v.664c0 .711-.576 1.287-1.287 1.287h-.449c-.094 0-.172.078-.172.174 0 .035.011.065.027.092" transform="matrix(25.89783 0 0-25.89783 165.85 91.28)"/></g></svg>

<?xml version="1.0" encoding="UTF-8" standalone="no"?>
<!-- Created with Inkscape (http://www.inkscape.org/) -->
<svg
   xmlns:dc="http://purl.org/dc/elements/1.1/"
   xmlns:cc="http://creativecommons.org/ns#"
   xmlns:rdf="http://www.w3.org/1999/02/22-rdf-syntax-ns#"
   xmlns:svg="http://www.w3.org/2000/svg"
   xmlns="http://www.w3.org/2000/svg"
   xmlns:sodipodi="http://sodipodi.sourceforge.net/DTD/sodipodi-0.dtd"
   xmlns:inkscape="http://www.inkscape.org/namespaces/inkscape"
   width="256"
   height="256"
   id="svg5294"
   sodipodi:version="0.32"
   inkscape:version="0.46"
   version="1.0"
   sodipodi:docname="pictograms-nps-misc-smoking-2.svg"
   inkscape:output_extension="org.inkscape.output.svg.inkscape">
  <defs
     id="defs5296">
    <inkscape:perspective
       sodipodi:type="inkscape:persp3d"
       inkscape:vp_x="0 : 526.18109 : 1"
       inkscape:vp_y="0 : 1000 : 0"
       inkscape:vp_z="744.09448 : 526.18109 : 1"
       inkscape:persp3d-origin="372.04724 : 350.78739 : 1"
       id="perspective5302" />
  </defs>
  <sodipodi:namedview
     id="base"
     pagecolor="#ffffff"
     bordercolor="#666666"
     borderopacity="1.0"
     gridtolerance="10000"
     guidetolerance="10"
     objecttolerance="10"
     inkscape:pageopacity="0.0"
     inkscape:pageshadow="2"
     inkscape:zoom="0.98994949"
     inkscape:cx="112.80911"
     inkscape:cy="62.857143"
     inkscape:document-units="px"
     inkscape:current-layer="layer1"
     showgrid="false"
     inkscape:window-width="725"
     inkscape:window-height="674"
     inkscape:window-x="1"
     inkscape:window-y="309" />
  <metadata
     id="metadata5299">
    <rdf:RDF>
      <cc:Work
         rdf:about="">
        <dc:format>image/svg+xml</dc:format>
        <dc:type
           rdf:resource="http://purl.org/dc/dcmitype/StillImage" />
      </cc:Work>
    </rdf:RDF>
  </metadata>
  <g
     inkscape:label="Layer 1"
     inkscape:groupmode="layer"
     id="layer1">
    <g
       id="g5676"
       transform="matrix(25.897825,0,0,-25.897825,30.598322,5.2939298)">
      <path
         d="M 0,0 C -0.541,0 -0.981,-0.44 -0.981,-0.981 L -0.981,-8.503 C -0.981,-9.042 -0.541,-9.48 0,-9.48 L 7.521,-9.48 C 8.063,-9.48 8.503,-9.042 8.503,-8.503 L 8.503,-0.981 C 8.503,-0.44 8.063,0 7.521,0 L 0,0 z"
         style="fill:#ffffff;fill-opacity:1;fill-rule:nonzero;stroke:none"
         id="path5678" />
    </g>
    <g
       id="g5680"
       transform="matrix(25.897825,0,0,-25.897825,225.38877,256)">
      <path
         d="M 0,0 C 0.652,0 1.182,0.527 1.182,1.178 L 1.182,8.699 C 1.182,9.352 0.652,9.881 0,9.881 L -7.521,9.881 C -8.174,9.881 -8.703,9.352 -8.703,8.699 L -8.703,1.178 C -8.703,0.527 -8.174,0 -7.521,0 L 0,0 z"
         style="fill:#000000;fill-opacity:1;fill-rule:nonzero;stroke:none"
         id="path5682" />
    </g>
    <path
       d="M 34.796276,157.97694 L 192.25505,157.97694 L 192.25505,185.843 L 34.796276,185.843 L 34.796276,157.97694 z"
       style="fill:#ffffff;fill-opacity:1;fill-rule:nonzero;stroke:none"
       id="path5684" />
    <path
       d="M 207.63836,158.08053 L 199.68773,158.08053 L 199.68773,185.843 L 207.63836,185.843 L 207.63836,158.08053 z"
       style="fill:#ffffff;fill-opacity:1;fill-rule:nonzero;stroke:none"
       id="path5686" />
    <path
       d="M 222.50371,158.08053 L 214.55308,158.08053 L 214.55308,185.843 L 222.50371,185.843 L 222.50371,158.08053 z"
       style="fill:#ffffff;fill-opacity:1;fill-rule:nonzero;stroke:none"
       id="path5688" />
    <g
       id="g5690"
       transform="matrix(25.897825,0,0,-25.897825,159.53064,121.47924)">
      <path
         d="M 0,0 C -0.463,0 -0.84,0.375 -0.84,0.838 C -0.84,0.926 -0.826,1.01 -0.801,1.09 C -1.375,1.1 -1.836,1.568 -1.836,2.145 C -1.836,2.725 -1.371,3.193 -0.793,3.201 L -0.793,2.896 C -1.203,2.891 -1.533,2.557 -1.533,2.145 C -1.533,1.73 -1.195,1.393 -0.781,1.393 C -0.729,1.393 -0.68,1.398 -0.631,1.408 C -0.617,1.412 -0.602,1.414 -0.588,1.414 C -0.49,1.414 -0.41,1.334 -0.41,1.236 C -0.41,1.199 -0.422,1.166 -0.441,1.137 C -0.498,1.051 -0.533,0.949 -0.533,0.838 C -0.533,0.545 -0.295,0.305 0,0.305 L 1.102,0.305 C 1.52,0.305 1.855,-0.033 1.855,-0.449 L 1.857,-1.051 L 1.551,-1.051 L 1.551,-0.449 C 1.551,-0.201 1.35,0 1.102,0 L 0,0 z"
         style="fill:#ffffff;fill-opacity:1;fill-rule:nonzero;stroke:none"
         id="path5692" />
    </g>
    <g
       id="g5694"
       transform="matrix(25.897825,0,0,-25.897825,165.85493,91.282375)">
      <path
         d="M 0,0 C 0.113,0.146 0.18,0.328 0.18,0.527 C 0.18,1.008 -0.209,1.396 -0.689,1.396 L -0.758,1.396 L -0.758,1.703 L -0.689,1.703 C -0.041,1.703 0.486,1.176 0.486,0.527 C 0.486,0.354 0.447,0.188 0.379,0.039 L 0.594,0.041 C 1.475,0.041 2.188,-0.674 2.188,-1.553 L 2.188,-2.217 L 1.881,-2.217 L 1.881,-1.553 C 1.881,-0.842 1.305,-0.266 0.594,-0.266 L 0.145,-0.266 C 0.051,-0.266 -0.027,-0.188 -0.027,-0.092 C -0.027,-0.057 -0.016,-0.027 0,0"
         style="fill:#ffffff;fill-opacity:1;fill-rule:nonzero;stroke:none"
         id="path5696" />
    </g>
  </g>
</svg>
